!!!SOCIAL_FUNCTION:	songs concerning a boy's fast
!!!PDT:	1913
!!!OTL: No_101_Song_After_a_Boy_Returns_From_Fasting.krn
!!!REG: Great_Lakes
!!!LANG: Non-Tone
!!!LING_GROUP: Algonquin
**kern	**kern
*staff2	*staff1
=1-	=1-
*clefF4	*clefF4
*k[b-]	*k[b-]
*M3/4	*M3/4
8GG/L	8c\L
8GG/J	8c\J
8GG/L	4c\
8GG/J	.
8GG/L	4d-\
8GG/J	.
=2	=2
2.r	4c\
.	4c\
.	12d-\L
.	(12c\
.	12c\J)
=3	=3
2.r	(2c;\
.	8.c\L)
.	16A\Jk
=4	=4
2.r	8A\L
.	8A\J
.	4A\
.	4c\
=5	=5
2.r	4c\
.	8c\L
.	8c\J
.	(8.A\L
.	16G\Jk)
=6	=6
2.r	8F\L
.	8F\J
.	4F\
.	4A\
=7	=7
2.r	8.A\L
.	16G\Jk
.	4F\
.	12A\L
.	12F\
.	12D\J
=8	=8
2.r	8C/L
.	8C/J
.	8C/L
.	8AA/J
.	4C/
=9	=9
2.r	4C/
.	8C/L
.	8C/J
.	4C/
=10	=10
2.r	[2.C/
=11	=11
2.r	2.C/]
=12||	=12||
*M2/4	*M2/4
2r	8C/L
.	8C/J
.	8C/L
.	8C/J
=13||	=13||
*M3/4	*M3/4
2.r	8C/L
.	8C/J
.	8C/L
.	8C/J
.	4AA/
=14	=14
2.r	8FF/L
.	8FF/J
.	4FF/
.	4AA/
=15	=15
2.r	(8.AA/L
.	16GG/Jk)
.	4FF/
.	4FF/
=16||	=16||
*M2/4	*M2/4
2r	4..FF/
.	16FF/
=17	=17
2r	[2FF/
=18	=18
2r	2FF/]
==	==
*-	*-
